src/lib/packages/icons/src/assets/filled/glasses.svg

<svg width="24" height="24" viewBox="0 0 24 24" fill="none" xmlns="http://www.w3.org/2000/svg">
<path d="M21.75 16V17C21.75 19.418 20.418 20.75 18 20.75H17C14.695 20.75 13.3909 19.5279 13.2729 17.3199C12.6049 16.6169 11.3951 16.6169 10.7271 17.3199C10.6091 19.5279 9.305 20.75 7 20.75H6C3.582 20.75 2.25 19.418 2.25 17V16C2.25 11.724 3.19691 7.94893 3.90991 5.48093C4.01591 4.77193 4.48595 4.07197 5.17896 3.65097C5.86996 3.22997 6.70905 3.13594 7.47705 3.39194L8.23804 3.64596C8.63104 3.77696 8.84291 4.20194 8.71191 4.59494C8.58091 4.98894 8.16092 5.19994 7.76392 5.06894L7.00293 4.81491C6.65393 4.69891 6.27301 4.74195 5.95801 4.93295C5.64401 5.12395 5.43105 5.44298 5.37305 5.80698C4.86205 7.58897 4.24907 9.98295 3.94507 12.709C4.50407 12.415 5.18498 12.2509 6.00098 12.2509H7.00098C9.25198 12.2509 10.547 13.418 10.717 15.529C11.117 15.357 11.548 15.2509 12.001 15.2509C12.454 15.2509 12.8849 15.357 13.2849 15.529C13.4549 13.418 14.75 12.2509 17.001 12.2509H18.001C18.817 12.2509 19.4981 12.415 20.0581 12.709C19.7541 9.98895 19.1449 7.61392 18.6499 5.89792C18.5719 5.44292 18.3589 5.12493 18.0449 4.93393C17.7319 4.74393 17.35 4.70101 17 4.81601L16.239 5.06991C15.842 5.20191 15.421 4.98792 15.291 4.59592C15.159 4.20292 15.3719 3.77894 15.7649 3.64694L16.5259 3.39291C17.2949 3.13791 18.132 3.23195 18.824 3.65195C19.516 4.07295 19.986 4.77297 20.113 5.57297C20.803 7.94897 21.75 11.724 21.75 16Z" fill="currentColor"/>
</svg>

<svg xmlns="http://www.w3.org/2000/svg" width="24" height="24" fill="none"><path fill="currentColor" d="M21.75 16v1c0 2.418-1.332 3.75-3.75 3.75h-1c-2.305 0-3.61-1.222-3.727-3.43-.668-.703-1.878-.703-2.546 0-.118 2.208-1.422 3.43-3.727 3.43H6c-2.418 0-3.75-1.332-3.75-3.75v-1c0-4.276.947-8.051 1.66-10.52.106-.708.576-1.408 1.269-1.829a2.744 2.744 0 0 1 2.298-.26l.761.255a.75.75 0 0 1-.474 1.423l-.761-.254a1.251 1.251 0 0 0-1.63.992c-.511 1.782-1.124 4.176-1.428 6.902.56-.294 1.24-.458 2.056-.458h1c2.251 0 3.546 1.167 3.716 3.278.4-.172.831-.278 1.284-.278.453 0 .884.106 1.284.278.17-2.111 1.465-3.278 3.716-3.278h1c.816 0 1.497.164 2.057.458-.304-2.72-.913-5.095-1.408-6.811-.078-.455-.291-.773-.605-.964A1.257 1.257 0 0 0 17 4.816l-.761.254a.75.75 0 0 1-.474-1.423l.76-.254a2.752 2.752 0 0 1 3.588 2.18c.69 2.376 1.637 6.151 1.637 10.427Z"/></svg>
